X: 1
T: La Maison de Glace
T: The Ice House
C: R\'ejean Brunet
O: Qu\'ebec
R: jig
Z: 2006 John Chambers <jc:trillian.mit.edu>
M: 6/8
L: 1/8
K: D
|:\
"D"D3 DEF | "D"A3 AFA | "G"B3 Bcd | "A7"cBA GFE | "D"D3 DEF | "D"A3 AFA |\
[1 "G"B3 BAG | "A7"F3 E3 :|2 "G"B3 Bcd | "A(F#)"c6 ||
|:\
"Bm"B2B- Bcd | "G"B2B- Bcd | "D"fed "A"edc | "Bm"dcA "F#m"dcA |\
"Bm"B2B- Bcd | "G"B2B- Bcd | "D"fed "A"edc |1 "A"Adc "F#m"d2c :|2 "A"Adc "D"d3 :|

%%sep 1 1 500

